X: 21841
T: le Gentil Husard
Q: "Moderato."
R: waltz
B: W. Hamilton "Universal Tune-Book" Vol. 2 Glasgow 1846 p.184 #1
S: http://s3-eu-west-1.amazonaws.com/itma.dl.printmaterial/book_pdfs/hamiltonvol2web.pdf
Z: 2016 John Chambers <jc:trillian.mit.edu>
M: 3/4
L: 1/4
K: Eb
% - - - - - - - - - - - - - - - - - - - - - - - - -
B |\
Bgf | eGB | AFd | egB |\
Bgf | eGB | AFd | e2 :| \
|: B |\
AFd | egB | AFd | egB |\
Bgf | eGB | AFd | e2 :|
% - - - - - - - - - - - - - - - - - - - - - - - - -
